FINK
CUT[WO SOLCH EIN FEUER NOCH GEDEIHT]
REG[Europa, Mitteleuropa, Deutschland]
KEY[F0426  16  C 4/4]
MEL[-5_-6_-7_  1__1__2__2__  3___0__
    3__  4__3__2__1__  -7_.12__0__
    5__  4_3_2_1_-7_-6_-5_
    -5_  1__1__2__.1_  -7___.-6__  -5__0__.
    -5_-6_-7_  1__1__2__.1_  -7_-6_-5_-4#_-5__0_
    -5_  1__-5__-3__-1__  -5___-1_
    -5_-6_-7_  1__1__2__.1_  -7_-6_-5_-4#_-5__0_
    -5_  1__-5__-3__-1__  -5___-1_ //] >>
FCT[Vaterlands -, Heimat - Lied, nationalistisch, Trink - Lied]
